!!!COM: Ravel, (Joseph) Maurice
!!!OTL: L'Heure espagnole (The Spanish Hour), Opera in One Act
!!!OMV: Introduction
!!!example: 289
!!!work: Rav-16
**kern	**dynam	**kern	**dynam	**kern	**dynam	**kern	**dynam	**kern	**dynam	**kern	**kern	**kern	**kern	**kern	**kern	**dynam	**kern	**dynam	**kern	**dynam	**kern	**dynam	**kern	**kern	**dynam	**kern	**dynam	**kern	**dynam	**kern	**dynam	**kern	**dynam	**kern	**dynam
*part20	*part20	*part19	*part19	*part18	*part18	*part17	*part17	*part16	*part16	*part15	*part15	*part14	*part13	*part12	*part11	*part11	*part10	*part10	*part9	*part9	*part8	*part8	*part7	*part6	*part6	*part5	*part5	*part4	*part4	*part3	*part3	*part2	*part2	*part1	*part1
*staff21	*	*staff20	*	*staff19	*	*staff18	*	*staff17	*	*staff16	*staff15	*staff14	*staff13	*staff12	*staff11	*	*staff10	*	*staff9	*	*staff8	*	*staff7	*staff6	*	*staff5	*	*staff4	*	*staff3	*	*staff2	*	*staff1	*
*I"Contrabass	*	*I"Violoncello	*	*I"Viola	*	*I"Violin II	*	*I"Violin I	*	*I"Harp	*	*I"[Tubular Bells]	*I"Cloches	*I"Glockenspiel	*I"Timpani	*	*I"Trumpet in Bb	*	*I"Horn in F	*	*I"Horn in F	*	*I"Bassoon	*I"Bassoon	*	*I"Clarinet in Bb	*	*I"Clarinet in A	*	*I"Cor Anglais	*	*I"Oboe	*	*I"Flute	*
*I'Cb.	*	*I'Vc.	*	*I'Vla.	*	*I'Vln. II	*	*I'Vln. I	*	*I'Hp.	*	*	*I'Cloches	*I'Glock.	*I'Timp.	*	*I'Tpt.	*	*I'Hn.	*	*I'Hn.	*	*I'Bsn.	*I'Bsn.	*	*I'Cl.	*	*I'Cl.	*	*I'C. A.	*	*I'Ob.	*	*I'Fl.	*
*clefF4	*	*clefF4	*	*clefC3	*	*clefG2	*	*clefG2	*	*clefF4	*clefG2	*clefG2	*clefG2	*clefG2	*clefF4	*	*clefG2	*	*clefG2	*	*clefG2	*	*clefF4	*clefF4	*	*clefG2	*	*clefG2	*	*clefG2	*	*clefG2	*	*clefG2	*
*k[f#]	*	*k[f#]	*	*k[f#]	*	*k[f#]	*	*k[f#]	*	*k[f#]	*k[f#]	*k[f#]	*k[f#]	*k[f#]	*	*	*	*	*	*	*	*	*k[f#]	*k[f#]	*	*k[f#]	*	*k[f#]	*	*k[f#]	*	*k[f#]	*	*k[f#]	*
*G:	*	*G:	*	*G:	*	*G:	*	*G:	*	*G:	*G:	*G:	*G:	*G:	*	*	*	*	*	*	*	*	*G:	*G:	*	*G:	*	*G:	*	*G:	*	*G:	*	*G:	*
*M5/4	*	*M5/4	*	*M5/4	*	*M5/4	*	*M5/4	*	*M5/4	*M5/4	*M5/4	*M5/4	*M5/4	*M5/4	*	*M5/4	*	*M5/4	*	*M5/4	*	*M5/4	*M5/4	*	*M5/4	*	*M5/4	*	*M5/4	*	*M5/4	*	*M5/4	*
*MM121	*	*MM121	*	*MM121	*	*MM121	*	*MM121	*	*MM121	*MM121	*MM121	*MM121	*MM121	*MM121	*	*MM121	*	*MM121	*	*MM121	*	*MM121	*MM121	*	*MM121	*	*MM121	*	*MM121	*	*MM121	*	*MM121	*
=11	=	=	=	=	=	=	=	=	=	=	=	=	=	=	=	=	=	=	=	=	=	=	=	=	=	=	=	=	=	=	=	=	=	=	=
[2.EEE	ppp	2.BBt	pppp	8E	.	4%5r	.	4%5r	.	4%5r	4%5r	4%5r	8r	4%5r	4%5r	.	4%5r	.	4%5r	.	4E	.	8EE	4%5r	.	(4g	pp	(4B 4e	pp	4%5r	.	4%5r	.	4%5r	.
.	.	.	.	8r	.	.	.	.	.	.	.	.	4.ff#X	.	.	.	.	.	.	.	.	.	8r	.	.	.	.	.	.	.	.	.	.	.	.
.	.	.	.	4r	.	.	.	.	.	.	.	.	.	.	.	.	.	.	.	.	4r	.	4r	.	.	4f#	.	4A 4d	.	.	.	.	.	.	.
.	.	.	.	4r	.	.	.	.	.	.	.	.	4.ff#X	.	.	.	.	.	.	.	4r	.	4r	.	.	4e	.	4G 4B	.	.	.	.	.	.	.
2EEE_	.	2CT	.	2r	.	.	.	.	.	.	.	.	.	.	.	.	.	.	.	.	2r	.	2r	.	.	4c	.	4E 4A	.	.	.	.	.	.	.
.	.	.	.	.	.	.	.	.	.	.	.	.	4.ff#X	.	.	.	.	.	.	.	.	.	.	.	.	.	.	.	.	.	.	.	.	.	.
.	.	.	.	.	.	.	.	.	.	.	.	.	.	.	.	.	.	.	.	.	.	.	.	.	.	4e	.	4G 4c	.	.	.	.	.	.	.
=12	=12	=12	=12	=12	=12	=12	=12	=12	=12	=12	=12	=12	=12	=12	=12	=12	=12	=12	=12	=12	=12	=12	=12	=12	=12	=12	=12	=12	=12	=12	=12	=12	=12	=12	=12
2.EEE_	.	2.BBt	.	4%5r	.	4%5r	.	4%5r	.	4%5r	4%5r	4%5r	4.ff#X	4%5r	4%5r	.	4%5r	.	4%5r	.	4%5r	.	4%5r	4%5r	.	4g	.	4B 4e	.	4%5r	.	4%5r	.	4%5r	.
.	.	.	.	.	.	.	.	.	.	.	.	.	.	.	.	.	.	.	.	.	.	.	.	.	.	4f#	.	4A 4d	.	.	.	.	.	.	.
.	.	.	.	.	.	.	.	.	.	.	.	.	4.ff#X	.	.	.	.	.	.	.	.	.	.	.	.	.	.	.	.	.	.	.	.	.	.
.	.	.	.	.	.	.	.	.	.	.	.	.	.	.	.	.	.	.	.	.	.	.	.	.	.	4e	.	4G 4B	.	.	.	.	.	.	.
2EEE_	.	2CT	.	.	.	.	.	.	.	.	.	.	4.ff#X	.	.	.	.	.	.	.	.	.	.	.	.	4c	.	4E 4A	.	.	.	.	.	.	.
.	.	.	.	.	.	.	.	.	.	.	.	.	.	.	.	.	.	.	.	.	.	.	.	.	.	4e	.	4G 4c	.	.	.	.	.	.	.
.	.	.	.	.	.	.	.	.	.	.	.	.	[8ff#X	.	.	.	.	.	.	.	.	.	.	.	.	.	.	.	.	.	.	.	.	.	.
=13	=13	=13	=13	=13	=13	=13	=13	=13	=13	=13	=13	=13	=13	=13	=13	=13	=13	=13	=13	=13	=13	=13	=13	=13	=13	=13	=13	=13	=13	=13	=13	=13	=13	=13	=13
*M3/4	*	*M3/4	*	*M3/4	*	*M3/4	*	*M3/4	*	*M3/4	*M3/4	*M3/4	*M3/4	*M3/4	*M3/4	*	*M3/4	*	*M3/4	*	*M3/4	*	*M3/4	*M3/4	*	*M3/4	*	*M3/4	*	*M3/4	*	*M3/4	*	*M3/4	*
2.EEE]	.	2.BBt	.	2.r	.	2.r	.	2.r	.	2.r	2.r	2.r	4ff#X]	2.r	2.r	.	2.r	.	2.r	.	2.r	.	2.r	(2G	<	4g	.	4B 4e	.	2.r	.	2.r	.	2.r	.
.	.	.	.	.	.	.	.	.	.	.	.	.	4.ff#X	.	.	.	.	.	.	.	.	.	.	.	.	4b	.	4d 4g	.	.	.	.	.	.	.
.	.	.	.	.	.	.	.	.	.	.	.	.	.	.	.	.	.	.	.	.	.	.	.	4E 4A	[[	4cc#X	.	4e 4a	.	.	.	.	.	.	.
.	.	.	.	.	.	.	.	.	.	.	.	.	[8ff#X	.	.	.	.	.	.	.	.	.	.	.	.	.	.	.	.	.	.	.	.	.	.
=14	=14	=14	=14	=14	=14	=14	=14	=14	=14	=14	=14	=14	=14	=14	=14	=14	=14	=14	=14	=14	=14	=14	=14	=14	=14	=14	=14	=14	=14	=14	=14	=14	=14	=14	=14
*M5/4	*	*M5/4	*	*M5/4	*	*M5/4	*	*M5/4	*	*M5/4	*M5/4	*M5/4	*M5/4	*M5/4	*M5/4	*	*M5/4	*	*M5/4	*	*M5/4	*	*M5/4	*M5/4	*	*M5/4	*	*M5/4	*	*M5/4	*	*M5/4	*	*M5/4	*
[2.DD	.	4DT 4F# 4B	.	4%5r	.	4%5r	.	4%5r	.	4%5r	4%5r	2c	4.ff#X]	4%5r	4%5r	.	4%5r	.	[2.c	pp	4%5r	.	4%5r	4d 4f#	[	8dd)	.	8f#) 8b	.	(4B	p	(4b	p	4%5r	.
.	.	.	.	.	.	.	.	.	.	.	.	.	.	.	.	.	.	.	.	.	.	.	.	.	.	8r	.	8r	.	.	.	.	.	.	.
.	.	4CT 4E 4A	.	.	.	.	.	.	.	.	.	.	.	.	.	.	.	.	.	.	.	.	.	4c 4e	.	4r	.	4r	.	4A	.	4a	.	.	.
.	.	.	.	.	.	.	.	.	.	.	.	.	4.ff#X	.	.	.	.	.	.	.	.	.	.	.	.	.	.	.	.	.	.	.	.	.	.
.	.	4BBt 4D 4G	.	.	.	.	.	.	.	.	.	8r	.	.	.	.	.	.	.	.	.	.	.	4A 4d	.	4r	.	4r	.	4F#	.	4f#	.	.	.
.	.	.	.	.	.	.	.	.	.	.	.	2c	.	.	.	.	.	.	.	.	.	.	.	.	.	.	.	.	.	.	.	.	.	.	.
2DD_	.	4AAT 4C 4F#	.	.	.	.	.	.	.	.	.	.	4.ff#X	.	.	.	.	.	2c_	.	.	.	.	4G 4c	.	2r	.	2r	.	4E	.	4e	.	.	.
.	.	4BBt 4D 4G	.	.	.	.	.	.	.	.	.	.	.	.	.	.	.	.	.	.	.	.	.	4B 4e	.	.	.	.	.	4G	.	4g	.	.	.
.	.	.	.	.	.	.	.	.	.	.	.	8r	[8ff#X	.	.	.	.	.	.	.	.	.	.	.	.	.	.	.	.	.	.	.	.	.	.
*	*	*	*	*	*	*	*	*	*	*clefG2	*	*	*	*	*	*	*	*	*	*	*	*	*	*	*	*	*	*	*	*	*	*	*	*	*
=15	=15	=15	=15	=15	=15	=15	=15	=15	=15	=15	=15	=15	=15	=15	=15	=15	=15	=15	=15	=15	=15	=15	=15	=15	=15	=15	=15	=15	=15	=15	=15	=15	=15	=15	=15
2.DD_	<	4DT 4F# 4B	<	4%5r	.	4%5r	.	4%5r	.	4%5r	4%5r	2c	4%5r	4%5r	4%5r	.	4%5r	.	2.c_	.	4%5r	.	4%5r	4d 4f#	<	4%5r	.	4%5r	.	4B	<	4b	<	4%5r	.
.	.	4CT 4E 4A	.	.	.	.	.	.	.	.	.	.	.	.	.	.	.	.	.	.	.	.	.	4c 4e	.	.	.	.	.	4A	.	4a	.	.	.
.	.	4DT 4F# 4B	.	.	.	.	.	.	.	.	.	8r	.	.	.	.	.	.	.	.	.	.	.	4d 4f#	.	.	.	.	.	4B	.	4b	.	.	.
.	.	.	.	.	.	.	.	.	.	.	.	2c	.	.	.	.	.	.	.	.	.	.	.	.	.	.	.	.	.	.	.	.	.	.	.
2DD_	[[	4ET 4G 4c	.	.	.	.	.	.	.	.	.	.	.	.	.	.	.	.	2c_	.	.	.	.	4e 4g	.	.	.	.	.	4c	.	4cc	.	.	.
.	.	4GT 4B 4e	[[	.	.	.	.	.	.	.	.	.	.	.	.	.	.	.	.	.	.	.	.	4g 4b	[[	.	.	.	.	4e	[[	4ee	[[	.	.
.	.	.	.	.	.	.	.	.	.	.	.	8r	.	.	.	.	.	.	.	.	.	.	.	.	.	.	.	.	.	.	.	.	.	.	.
=16	=16	=16	=16	=16	=16	=16	=16	=16	=16	=16	=16	=16	=16	=16	=16	=16	=16	=16	=16	=16	=16	=16	=16	=16	=16	=16	=16	=16	=16	=16	=16	=16	=16	=16	=16
!!pagebreak:original
*M6/4	*	*M6/4	*	*M6/4	*	*M6/4	*	*M6/4	*	*M6/4	*M6/4	*M6/4	*M6/4	*M6/4	*M6/4	*	*M6/4	*	*M6/4	*	*M6/4	*	*M6/4	*M6/4	*	*M6/4	*	*M6/4	*	*M6/4	*	*M6/4	*	*M6/4	*
8CC	[	8c	[	4cn 4en	>	4a#X 4cc#X	>	4f#X 4ff#X	>	4cn 4en 4g-X	4a-X 4cc-X 4ee 4gg-X	2c	1.r	8r	1.CT	>	(4b	>	(8cL] [8e	>	(4c 4b-X	>	1.r	8e) 8b-X	[	1.r	.	1.r	.	4f#	[	8ff#)	[	(4cc#X 4ff#X	>
8r	.	8r	.	.	.	.	.	.	.	.	.	.	.	8ccccL	.	.	.	.	8eJ]	.	.	.	.	8r	.	.	.	.	.	.	.	8r	.	.	.
4r	.	4r	.	4Bn 4d#X	.	4an 4ccn	.	4fn 4ffn	.	4r	4r	.	.	8ddddJ	.	.	4dd#X	.	4d#X	.	4Bn 4a	.	.	4r	.	.	.	.	.	4cc	.	4r	.	4ffn 4aan 4cccn	.
.	.	.	.	.	.	.	.	.	.	.	.	.	.	8r	.	.	.	.	.	.	.	.	.	.	.	.	.	.	.	.	.	.	.	.	.
4r	.	4r	.	4B-X 4d-X	.	4g#X 4b	.	4e 4ee	.	4r	4r	8r	.	8ccccL	.	.	4an	.	4dn	.	4B-X 4a-X	.	.	4r	.	.	.	.	.	4e	.	4r	.	4b 4een	.
.	.	.	.	.	.	.	.	.	.	.	.	[8c	.	8ddddJ	.	.	.	.	.	.	.	.	.	.	.	.	.	.	.	.	.	.	.	.	.
2.r	.	2.r	.	4A 4c#X	.	4gn 4b-X	.	4e-X 4ee-X	.	2r	2r	2c]	.	8r	.	.	4cc#X	.	4c#X	.	4A 4g	.	.	2.r	.	.	.	.	.	4b-X	.	2.r	.	4ee-X 4bb-X	.
.	.	.	.	.	.	.	.	.	.	.	.	.	.	8ccccL	.	.	.	.	.	.	.	.	.	.	.	.	.	.	.	.	.	.	.	.	.
.	.	.	.	4A-X 4cn	.	4f#X 4a	.	4d 4dd	.	.	.	.	.	8ddddJ	.	.	4gn	.	4cn	.	4A-X 4g-X	.	.	.	.	.	.	.	.	4d	.	.	.	4a 4dd	.
.	.	.	.	.	.	.	.	.	.	.	.	.	.	8r	.	.	.	.	.	.	.	.	.	.	.	.	.	.	.	.	.	.	.	.	.
.	.	.	.	4Gn 4Bn	.	4fn 4a-X	.	4d-X 4dd-X	.	4r	4r	4r	.	8ccccL	.	.	4bn	.	4B	.	4Gn 4f	.	.	.	.	.	.	.	.	4a-X	[[	.	.	4dd-X 4aa-X	]]
.	.	.	.	.	.	.	.	.	.	.	.	.	.	8ddddJ	.	.	.	.	.	.	.	.	.	.	.	.	.	.	.	.	.	.	.	.	.
=17	=17	=17	=17	=17	=17	=17	=17	=17	=17	=17	=17	=17	=17	=17	=17	=17	=17	=17	=17	=17	=17	=17	=17	=17	=17	=17	=17	=17	=17	=17	=17	=17	=17	=17	=17
1.r	.	1.r	.	4F#X 4A#X	.	4e 4gn	.	4c 4cc	.	1.r	1.r	1.r	1.r	6r	1.C	]]	4f	.	4A#X	.	4F#X 4e	.	1.r	1.r	.	1.r	.	1.r	.	8c)	[	1.r	.	8g) 8cc	]
.	.	.	.	.	.	.	.	.	.	.	.	.	.	.	.	.	.	.	.	.	.	.	.	.	.	.	.	.	.	8r	.	.	.	8r	.
.	.	.	.	.	.	.	.	.	.	.	.	.	.	6ggg#X	.	.	.	.	.	.	.	.	.	.	.	.	.	.	.	.	.	.	.	.	.
.	.	.	.	4Fn 4An	.	4d#X 4f#X	.	4B 4b	.	.	.	.	.	.	.	.	4a	.	4An	.	4Fn 4e-X	.	.	.	.	.	.	.	.	4r	.	.	.	4r	.
.	.	.	.	.	.	.	.	.	.	.	.	.	.	6ggg#	.	.	.	.	.	.	.	.	.	.	.	.	.	.	.	.	.	.	.	.	.
.	.	.	.	4E 4G#X	.	4dn 4fn	.	4B-X 4b-X	.	.	.	.	.	6ggg#	.	.	4e-X	.	4G#X	.	4E 4d	.	.	.	.	.	.	.	.	4r	.	.	.	4r	.
.	.	.	.	.	.	.	.	.	.	.	.	.	.	6ggg#	.	.	.	.	.	.	.	.	.	.	.	.	.	.	.	.	.	.	.	.	.
.	.	.	.	4E-X 4Gn	.	4c#X 4e	.	4A 4a	.	.	.	.	.	.	.	.	4g	.	4Gn	.	4E-X 4d-X	.	.	.	.	.	.	.	.	2.r	.	.	.	2.r	.
.	.	.	.	.	.	.	.	.	.	.	.	.	.	6ggg#	.	.	.	.	.	.	.	.	.	.	.	.	.	.	.	.	.	.	.	.	.
.	.	.	.	4D 4F#X	.	4cn 4e-X	.	4A-X 4a-X	.	.	.	.	.	6ggg#	.	.	4d-X	.	4F#X	.	4D 4c	.	.	.	.	.	.	.	.	.	.	.	.	.	.
.	.	.	.	.	.	.	.	.	.	.	.	.	.	6ggg#	.	.	.	.	.	.	.	.	.	.	.	.	.	.	.	.	.	.	.	.	.
.	.	.	.	4C#X 4E#X	]]	4B 4d	]]	4G 4g	]]	.	.	.	.	.	.	.	4f	.	4Fn)	]]	4D-X) 4c-X	]]	.	.	.	.	.	.	.	.	.	.	.	.	.
.	.	.	.	.	.	.	.	.	.	.	.	.	.	6ggg#	.	.	.	.	.	.	.	.	.	.	.	.	.	.	.	.	.	.	.	.	.
=18	=18	=18	=18	=18	=18	=18	=18	=18	=18	=18	=18	=18	=18	=18	=18	=18	=18	=18	=18	=18	=18	=18	=18	=18	=18	=18	=18	=18	=18	=18	=18	=18	=18	=18	=18
*M5/4	*	*M5/4	*	*M5/4	*	*M5/4	*	*M5/4	*	*M5/4	*M5/4	*M5/4	*M5/4	*M5/4	*M5/4	*	*M5/4	*	*M5/4	*	*M5/4	*	*M5/4	*M5/4	*	*M5/4	*	*M5/4	*	*M5/4	*	*M5/4	*	*M5/4	*
[2.CC	>	4C 4E	>	4A#X	]	4B-X 4f#X	]	4f#X	]	4%5r	4%5r	4%5r	4%5r	6ggg#X	8C	]	4c-X)	]	(2d-X	]	4%5r	]	4%5r	4%5r	.	4%5r	.	4%5r	.	(4B-X	>	(4f#X	>	4%5r	.
.	.	.	.	.	.	.	.	.	.	.	.	.	.	.	8r	.	.	.	.	.	.	.	.	.	.	.	.	.	.	.	.	.	.	.	.
.	.	.	.	.	.	.	.	.	.	.	.	.	.	6ggg#	.	.	.	.	.	.	.	.	.	.	.	.	.	.	.	.	.	.	.	.	.
.	.	4BB 4D#X	.	4An	.	4r	.	4fn	.	.	.	.	.	.	4r	.	4r	.	.	.	.	.	.	.	.	.	.	.	.	4A	.	4fn	.	.	.
.	.	.	.	.	.	.	.	.	.	.	.	.	.	6ggg#	.	.	.	.	.	.	.	.	.	.	.	.	.	.	.	.	.	.	.	.	.
.	.	4BB-X 4Dn	.	4G#X	.	4r	.	4e	.	.	.	.	.	4r	4r	.	4r	.	2c	.	.	.	.	.	.	.	.	.	.	4G#X	.	4e	.	.	.
2CC_	]]	4AA 4C#X	.	4Gn	.	2r	.	4d#X	.	.	.	.	.	2r	2r	.	2r	.	.	.	.	.	.	.	.	.	.	.	.	4Gn	.	4d#X	.	.	.
.	.	4AA-X 4Cn	]]	4F#X	]]	.	.	4dn	]]	.	.	.	.	.	.	.	.	.	4B-X)	.	.	.	.	.	.	.	.	.	.	4F#X)	]]	4dn)	]]	.	.
==	==	==	==	==	==	==	==	==	==	==	==	==	==	==	==	==	==	==	==	==	==	==	==	==	==	==	==	==	==	==	==	==	==	==	==
*-	*-	*-	*-	*-	*-	*-	*-	*-	*-	*-	*-	*-	*-	*-	*-	*-	*-	*-	*-	*-	*-	*-	*-	*-	*-	*-	*-	*-	*-	*-	*-	*-	*-	*-	*-
!!!CDT: 1875/03/07-1937/12/28
!!!CBL: Ciboure, France
!!!CDL: Paris, France
!!!CNT: French
!!!AGN: Stage; Opera
!!!MCN: Ruhlmann, Francois
!!!MDT: 1911/05/19
!!!MGN: unknown
!!!MLC: Paris, France
!!!MPD: 1911
!!!MPN: Cazeneuve, Maurice; Coulomb, M.; Delvoye, M.; Perier, Jean; Vix, Genevieve
!!!ODT: 1909
!!!PDT: 1908
!!!excerpt-start-measure: 11
!!!excerpt-end-measure: 18
!!!excerpt-start-time: 0:38
!!!excerpt-end-time: 1:06
!!!EEV: 2020/01/17
!!!system-decoration: [(s1,s2,s3,s4,s5,s6,s7)][(s8,s9,s10)][(s11)][(s12)][(s13,s14)]{(s15,s16)}[(s17,s18,s19,s20,s21)]
!!!ONB: Converted from MusicXML on 2020/01/17
